X: 1048
T: A Dance in the Play of Julius Cesar.
%R: jig, march, jig
B: Henry Playford "Apollo's Banquet", London 1687 (5th Edition)
F: https://archive.org/details/apollosbanquetco01rugg
Z: 2017 John Chambers <jc:trillian.mit.edu>
M: 6/4
L: 1/8
K: C
% - - - - - - - - - -
|:\
c2B2c2 d2c2d2 | e2d2f2 e4d2 | cBcdc2 dcded2 | edefg2 e6 ::\
e2f2e2 d4e2 | c2A2d2 B4G2 | c2A2d2 B2e4 | c2f3e d4c2 :|
|:[M:C|]\
G2GG G2G2 | c2G2 c2cd | e2ed g2gf | e2ef gagf |\
e2ef g2e2 | abag fgfe |d2G2 d2dd | d8 :|
|:\
d2de fefg | e3d cdef | g2g2efg2 | c4 fgfe |\
d4 gefg | agfe d3c | c8 ::[M:6/8] c2g2e2 c4d2 | e2(fe)(dc) g4e2 |
c2g2e2 c4d4 | e2(fe)(dc) g6 :: d2d2g2 e3fg2 | d2e2c2 d4G2 |\
g2g2e2 f2f2d2 | e2e2f2 d4c2 | e6 d3ec2 | d2d3c c6 |]
% - - - - - - - - - -

%%sep 1 1 500
%%sep 1 1 500

